X: 100407
M: C|
L: 1/8
K: Gm
uD2 |\
|: (uga) |\
bgdB GBdg | bgdB G2(fg) | afcA FAcf | afcA F2^F2 |


